public/svg/spiral-right.svg

<svg xmlns="http://www.w3.org/2000/svg" width="333" height="1031" fill="none"><path stroke="#21558A" stroke-opacity=".3" stroke-width=".5" d="M658.529 276.992c23.551 54.09 14.812 116.172-18.396 172.831-33.208 56.66-90.877 107.879-165.143 140.215s-151.049 39.658-215.149 25.367c-64.101-14.291-115.5-50.188-139.051-104.278s-14.813-116.172 18.395-172.831c33.208-56.66 90.877-107.88 165.144-140.216 74.266-32.336 151.049-39.657 215.149-25.367 64.1 14.291 115.499 50.189 139.051 104.279Z"/><path stroke="#21558A" stroke-opacity=".3" stroke-width=".5" d="M693.659 357.675c23.551 54.091 14.813 116.172-18.395 172.832S584.386 638.386 510.12 670.722s-151.049 39.658-215.149 25.367c-64.101-14.291-115.5-50.188-139.051-104.278s-14.813-116.172 18.395-172.832S265.193 311.1 339.459 278.764s151.049-39.658 215.149-25.367c64.101 14.291 115.5 50.188 139.051 104.278Z"/><path stroke="#21558A" stroke-opacity=".3" stroke-width=".5" d="M728.789 438.359c23.551 54.091 14.813 116.172-18.395 172.832S619.516 719.07 545.25 751.406s-151.049 39.658-215.149 25.367-115.499-50.188-139.051-104.279-14.813-116.171 18.396-172.831c33.207-56.66 90.877-107.879 165.143-140.215s151.049-39.658 215.149-25.367c64.101 14.291 115.5 50.188 139.051 104.278Z"/><path stroke="#21558A" stroke-opacity=".3" stroke-width=".5" d="M623.398 196.308c23.552 54.09 14.813 116.172-18.395 172.831-33.208 56.66-90.877 107.88-165.143 140.216s-151.05 39.657-215.15 25.367c-64.1-14.291-115.499-50.189-139.05-104.279s-14.813-116.172 18.395-172.831c33.208-56.66 90.877-107.879 165.143-140.215s151.049-39.658 215.15-25.367c64.1 14.291 115.499 50.188 139.05 104.278ZM799.05 599.727c23.551 54.09 14.812 116.172-18.396 172.831-33.208 56.66-90.877 107.879-165.143 140.215s-151.049 39.658-215.15 25.367c-64.1-14.291-115.499-50.188-139.05-104.278S246.498 717.69 279.706 661.03s90.877-107.879 165.144-140.215c74.266-32.336 151.049-39.658 215.149-25.367s115.499 50.189 139.051 104.279Z"/><path stroke="#21558A" stroke-opacity=".3" stroke-width=".5" d="M763.919 519.043c23.552 54.09 14.813 116.172-18.395 172.831-33.208 56.66-90.877 107.879-165.144 140.215-74.266 32.336-151.049 39.658-215.149 25.367S249.732 807.268 226.18 753.178s-14.812-116.172 18.396-172.831c33.208-56.66 90.877-107.88 165.143-140.216s151.049-39.657 215.15-25.366c64.1 14.29 115.499 50.188 139.05 104.278Z"/></svg>

<svg width="333" height="1031" viewBox="0 0 333 1031" fill="none" xmlns="http://www.w3.org/2000/svg">
<path d="M658.529 276.992C682.08 331.082 673.341 393.164 640.133 449.823C606.925 506.483 549.256 557.702 474.99 590.038C400.724 622.374 323.941 629.696 259.841 615.405C195.74 601.114 144.341 565.217 120.79 511.127C97.2386 457.037 105.977 394.955 139.185 338.296C172.393 281.636 230.062 230.416 304.329 198.08C378.595 165.744 455.378 158.423 519.478 172.713C583.578 187.004 634.977 222.902 658.529 276.992Z" stroke="#21558A" stroke-opacity="0.3" stroke-width="0.5"/>
<path d="M693.659 357.675C717.21 411.766 708.472 473.847 675.264 530.507C642.056 587.166 584.386 638.386 510.12 670.722C435.854 703.058 359.071 710.38 294.971 696.089C230.87 681.798 179.471 645.901 155.92 591.811C132.369 537.72 141.107 475.639 174.315 418.979C207.523 362.32 265.193 311.1 339.459 278.764C413.725 246.428 490.508 239.106 554.608 253.397C618.709 267.688 670.108 303.585 693.659 357.675Z" stroke="#21558A" stroke-opacity="0.3" stroke-width="0.5"/>
<path d="M728.789 438.359C752.34 492.45 743.602 554.531 710.394 611.191C677.186 667.85 619.516 719.07 545.25 751.406C470.984 783.742 394.201 791.064 330.101 776.773C266.001 762.482 214.602 726.585 191.05 672.494C167.499 618.404 176.237 556.323 209.446 499.663C242.653 443.003 300.323 391.784 374.589 359.448C448.855 327.112 525.638 319.79 589.738 334.081C653.839 348.372 705.238 384.269 728.789 438.359Z" stroke="#21558A" stroke-opacity="0.3" stroke-width="0.5"/>
<path d="M623.398 196.308C646.95 250.398 638.211 312.48 605.003 369.139C571.795 425.799 514.126 477.019 439.86 509.355C365.593 541.691 288.81 549.012 224.71 534.722C160.61 520.431 109.211 484.533 85.6596 430.443C62.1083 376.353 70.8468 314.271 104.055 257.612C137.263 200.952 194.932 149.733 269.198 117.397C343.465 85.0606 420.247 77.7388 484.348 92.0296C548.448 106.321 599.847 142.218 623.398 196.308Z" stroke="#21558A" stroke-opacity="0.3" stroke-width="0.5"/>
<path d="M799.05 599.727C822.601 653.817 813.862 715.899 780.654 772.558C747.446 829.218 689.777 880.437 615.511 912.773C541.244 945.109 464.462 952.431 400.361 938.14C336.261 923.849 284.862 887.952 261.311 833.862C237.759 779.772 246.498 717.69 279.706 661.03C312.914 604.371 370.583 553.151 444.85 520.815C519.116 488.479 595.899 481.157 659.999 495.448C724.099 509.739 775.498 545.637 799.05 599.727Z" stroke="#21558A" stroke-opacity="0.3" stroke-width="0.5"/>
<path d="M763.919 519.043C787.471 573.133 778.732 635.215 745.524 691.874C712.316 748.534 654.647 799.753 580.38 832.089C506.114 864.425 429.331 871.747 365.231 857.456C301.131 843.165 249.732 807.268 226.18 753.178C202.629 699.088 211.368 637.006 244.576 580.347C277.784 523.687 335.453 472.467 409.719 440.131C483.986 407.795 560.768 400.474 624.869 414.765C688.969 429.055 740.368 464.953 763.919 519.043Z" stroke="#21558A" stroke-opacity="0.3" stroke-width="0.5"/>
</svg>
